project/images/official/editable/529.svg

<?xml version="1.0" encoding="UTF-8" standalone="no"?>
<svg
   width="59.392017pt"
   height="32.632977pt"
   viewBox="0 0 59.392018 32.632977"
   version="1.1"
   id="svg3513"
   xmlns="http://www.w3.org/2000/svg"
   xmlns:svg="http://www.w3.org/2000/svg">
  <defs
     id="defs3517" />
  <g
     id="layer2"
     style="display:inline"
     transform="scale(0.74036996,1)" />
  <g
     id="layer1"
     transform="scale(0.99710032,0.91214023)">
    <rect
       style="display:inline;fill:#ffffff;stroke:none;stroke-width:0;stroke-linecap:square;stroke-miterlimit:4;stroke-dasharray:none;stroke-opacity:1"
       id="rect3621"
       width="59.564735"
       height="35.776272"
       x="0"
       y="8.8817842e-16" />
    <rect
       style="display:inline;fill:none;stroke:#000000;stroke-width:0.164154;stroke-linecap:square;stroke-miterlimit:4;stroke-dasharray:none;stroke-opacity:1"
       id="rect3621-4"
       width="58.666401"
       height="34.468613"
       x="0.486384"
       y="0.729029" />
  </g>
  <g
     id="layer3"
     style="display:inline"
     transform="matrix(0.92877431,0,0,0.92877431,1.4940648,-0.60467709)">
    <g
       id="surface1"
       transform="translate(3.8451591,3.8232397)">
      <path
         style="fill:#211e1e;fill-opacity:1;fill-rule:nonzero;stroke:none"
         d="M 1.628906,17.164062 1.269531,16.777344 C 0.765625,16.230469 3.878906,14.5 5.246094,14.023438 c 0.960937,-0.335938 3.5,-0.789063 4.042968,-0.789063 V 11.71875 c 0,-0.07031 0,-0.359375 0.140626,-0.503906 0.144531,-0.144532 0.476562,-0.09766 0.578124,-0.07422 0.210938,0.04687 0.722657,0.21875 0.722657,0.21875 0.07422,-0.07422 0.21875,-0.21875 0.289062,-0.289063 0.144531,-0.144531 1.15625,-0.796874 1.589844,-0.867187 0.792969,-0.07422 1.445313,0.07031 2.167969,0.289063 l 0.867187,0.289062 c 0.296875,0.09766 0.929688,-0.445312 1.226563,-0.433594 0.535156,0.01953 3.097656,0.886719 2.964844,0.371094 l -0.4375,-1.671875 C 19.335938,8.804688 18.941406,7.304688 18.75,7.167969 18.695312,7.132812 18.554688,7.183594 18.453125,7.257812 18.1875,7.453125 17.710938,7.394531 17.644531,7.105469 17.59375,6.894531 17.503906,6.65625 17.378906,6.519531 17.246094,6.378906 16.507812,6.246094 16.292969,6.230469 16.179688,6.21875 16.054688,6.128906 16.078125,6.015625 16.128906,5.730469 16.222656,5.433594 16.003906,5.074219 L 15.5,4.0625 C 15.355469,3.847656 15.355469,3.484375 15.355469,3.269531 c 0,-0.289062 0,-0.578125 0.07031,-0.867187 0.21875,-1.371094 1.660157,-2.09375 2.816407,-2.167969 0.941406,-0.074219 2.601562,0.074219 3.253906,2.601563 0.07031,0.289062 0.07031,0.722656 0.07031,0.9375 0.128906,0 2.570313,0.128906 3.394532,0.433593 0.964843,0.355469 4.085937,2.714844 5.632812,4.261719 1.027344,0.769531 2.960938,2.449219 4.046875,3.902344 0.230469,0.460937 0.519531,1.007812 0.417969,1.796875 -0.02734,0.195312 -0.273438,1.164062 -0.488282,1.378906 l 2.746094,1.804687 1.800782,-2.164062 c 0.222656,-0.21875 0.25,-0.496094 0.179687,-0.679688 -0.109375,-0.28125 -0.539063,-0.332031 -0.972656,-0.476562 l -1.804688,-0.648438 c -0.07422,-0.07422 -0.617187,-0.1875 -0.527343,-0.796874 0.05859,-0.40625 0.433593,-0.574219 0.601562,-0.578126 l 11.265625,-0.214843 1.519531,0.07031 c 0.179688,0.0078 0.449219,0.234375 0.570313,0.535157 0.171875,0.433593 0.03125,0.8125 -0.08594,0.941406 l -0.890625,0.941406 c -0.03906,0.226562 0.05078,0.347656 0.1875,0.472656 0.105469,0.09375 1.757813,1.492188 2.167969,2.308594 0.144531,0.21875 0.152344,1.03125 0.359375,1.027344 0.449219,-0.01563 0.867188,0.277344 0.867188,0.632812 V 23.5625 c 0,0.07422 -0.01953,0.261719 -0.07031,0.363281 -0.07422,0.136719 -0.386719,0.203125 -0.589844,0.199219 -0.417969,-0.01563 -0.710937,-0.199219 -0.785156,-0.199219 0,0.07422 -1.292969,4.582031 -6.570313,4.621094 -6.300781,0.05078 -7.363281,-5.851563 -7.371093,-5.847656 l -6.074219,2.4375 -10.609375,0.01563 c -0.21875,0 -1.363281,0.02734 -1.53125,-0.75 -0.121094,-0.558594 0.734375,-1.34375 0.808594,-1.414063 L 17.234375,19.59375 c 0,0 -0.21875,-0.433594 -0.578125,-0.292969 -0.289062,0.07422 -0.289062,0.507813 -0.289062,0.507813 l -0.02734,2.09375 c 0,0.07031 0,0.410156 -0.191406,0.578125 -0.234376,0.214843 -0.710938,0.07422 -0.921876,0.07422 -0.664062,3.425781 -3.683593,6.015624 -7.300781,6.015624 -4.109375,0 -7.441406,-3.332031 -7.441406,-7.4375 0,-1.457031 0.417969,-2.820312 1.144531,-3.96875"
         id="path3003" />
      <path
         style="fill:#ffffff;fill-opacity:1;fill-rule:nonzero;stroke:none"
         d="m 20.398438,20.691406 -1.949219,-3.101562 c -0.21875,-0.511719 -0.21875,-1.160156 0.144531,-1.59375 0.285156,-0.285156 0.796875,-0.285156 1.230469,0.144531 0.574219,0.578125 0.789062,1.734375 0.789062,2.238281 0,0.578125 -0.214843,1.519532 -0.214843,2.3125"
         id="path3005" />
      <path
         style="fill:#ffffff;fill-opacity:1;fill-rule:nonzero;stroke:none"
         d="m 30.652344,21.628906 -2.023438,-0.21875 c 0,0 0.792969,-1.445312 1.519532,-2.167968 0.574218,-0.574219 1.441406,-1.15625 2.023437,-1.515626 l -1.519531,3.902344"
         id="path3007" />
      <path
         style="fill:#ffffff;fill-opacity:1;fill-rule:nonzero;stroke:none"
         d="M 17.800781,13.597656 H 13.25 c 0,0 0.648438,-1.445312 1.949219,-1.375 0.433593,0 0.722656,-0.07031 1.296875,0.296875 0.511718,0.359375 0.945312,0.71875 1.304687,1.078125"
         id="path3009" />
      <path
         style="fill:#ffffff;fill-opacity:1;fill-rule:nonzero;stroke:none"
         d="m 9.386719,20.308594 0.839843,-1.261719 c 0.566407,0.574219 0.914063,1.347656 0.914063,2.214844 0,1.757812 -1.425781,3.183593 -3.183594,3.183593 -1.757812,0 -3.179687,-1.425781 -3.179687,-3.183593 0,-1.710938 1.347656,-3.105469 3.042968,-3.179688 l 0.074219,1.453125 C 6.96875,19.5625 6.230469,20.324219 6.230469,21.25 c 0,0.949219 0.769531,1.71875 1.71875,1.71875 0.945312,0 1.71875,-0.769531 1.71875,-1.71875 0,-0.34375 -0.105469,-0.667969 -0.28125,-0.941406"
         id="path3011" />
      <path
         style="fill:#ffffff;fill-opacity:1;fill-rule:nonzero;stroke:none"
         d="m 45.921875,21.925781 1.277344,0.632813 c -0.488281,1.128906 -1.609375,1.914062 -2.914063,1.914062 -1.75,0 -3.171875,-1.421875 -3.171875,-3.171875 0,-0.574219 0.152344,-1.117187 0.421875,-1.582031 l 1.304688,0.640625 c -0.183594,0.277344 -0.289063,0.605469 -0.289063,0.960937 0,0.960938 0.78125,1.742188 1.742188,1.742188 0.746093,0 1.386719,-0.472656 1.628906,-1.136719"
         id="path3013" />
      <path
         style="fill:#ffffff;fill-opacity:1;fill-rule:nonzero;stroke:none"
         d="m 47.296875,20.304688 -1.382813,0.390624 c -0.25,-0.652343 -0.882812,-1.113281 -1.621093,-1.113281 -0.160157,0 -0.316407,0.01953 -0.464844,0.0625 L 43.28125,18.292969 c 0.316406,-0.105469 0.652344,-0.164063 1.003906,-0.164063 1.402344,0 2.59375,0.914063 3.011719,2.175782"
         id="path3015" />
    </g>
  </g>
</svg>

<?xml version="1.0" encoding="UTF-8"?>
<svg xmlns="http://www.w3.org/2000/svg" xmlns:xlink="http://www.w3.org/1999/xlink" width="53pt" height="29pt" viewBox="0 0 53 29" version="1.1">
<g id="surface1">
<path style=" stroke:none;fill-rule:nonzero;fill:rgb(13.729858%,12.159729%,12.548828%);fill-opacity:1;" d="M 1.628906 17.164062 L 1.269531 16.777344 C 0.765625 16.230469 3.878906 14.5 5.246094 14.023438 C 6.207031 13.6875 8.746094 13.234375 9.289062 13.234375 L 9.289062 11.71875 C 9.289062 11.648438 9.289062 11.359375 9.429688 11.214844 C 9.574219 11.070312 9.90625 11.117188 10.007812 11.140625 C 10.21875 11.1875 10.730469 11.359375 10.730469 11.359375 C 10.804688 11.285156 10.949219 11.140625 11.019531 11.070312 C 11.164062 10.925781 12.175781 10.273438 12.609375 10.203125 C 13.402344 10.128906 14.054688 10.273438 14.777344 10.492188 L 15.644531 10.78125 C 15.941406 10.878906 16.574219 10.335938 16.871094 10.347656 C 17.40625 10.367188 19.96875 11.234375 19.835938 10.71875 L 19.398438 9.046875 C 19.335938 8.804688 18.941406 7.304688 18.75 7.167969 C 18.695312 7.132812 18.554688 7.183594 18.453125 7.257812 C 18.1875 7.453125 17.710938 7.394531 17.644531 7.105469 C 17.59375 6.894531 17.503906 6.65625 17.378906 6.519531 C 17.246094 6.378906 16.507812 6.246094 16.292969 6.230469 C 16.179688 6.21875 16.054688 6.128906 16.078125 6.015625 C 16.128906 5.730469 16.222656 5.433594 16.003906 5.074219 L 15.5 4.0625 C 15.355469 3.847656 15.355469 3.484375 15.355469 3.269531 C 15.355469 2.980469 15.355469 2.691406 15.425781 2.402344 C 15.644531 1.03125 17.085938 0.308594 18.242188 0.234375 C 19.183594 0.160156 20.84375 0.308594 21.496094 2.835938 C 21.566406 3.125 21.566406 3.558594 21.566406 3.773438 C 21.695312 3.773438 24.136719 3.902344 24.960938 4.207031 C 25.925781 4.5625 29.046875 6.921875 30.59375 8.46875 C 31.621094 9.238281 33.554688 10.917969 34.640625 12.371094 C 34.871094 12.832031 35.160156 13.378906 35.058594 14.167969 C 35.03125 14.363281 34.785156 15.332031 34.570312 15.546875 L 37.316406 17.351562 L 39.117188 15.1875 C 39.339844 14.96875 39.367188 14.691406 39.296875 14.507812 C 39.1875 14.226562 38.757812 14.175781 38.324219 14.03125 L 36.519531 13.382812 C 36.445312 13.308594 35.902344 13.195312 35.992188 12.585938 C 36.050781 12.179688 36.425781 12.011719 36.59375 12.007812 L 47.859375 11.792969 L 49.378906 11.863281 C 49.558594 11.871094 49.828125 12.097656 49.949219 12.398438 C 50.121094 12.832031 49.980469 13.210938 49.863281 13.339844 L 48.972656 14.28125 C 48.933594 14.507812 49.023438 14.628906 49.160156 14.753906 C 49.265625 14.847656 50.917969 16.246094 51.328125 17.0625 C 51.472656 17.28125 51.480469 18.09375 51.6875 18.089844 C 52.136719 18.074219 52.554688 18.367188 52.554688 18.722656 L 52.554688 23.5625 C 52.554688 23.636719 52.535156 23.824219 52.484375 23.925781 C 52.410156 24.0625 52.097656 24.128906 51.894531 24.125 C 51.476562 24.109375 51.183594 23.925781 51.109375 23.925781 C 51.109375 24 49.816406 28.507812 44.539062 28.546875 C 38.238281 28.597656 37.175781 22.695312 37.167969 22.699219 L 31.09375 25.136719 L 20.484375 25.152344 C 20.265625 25.152344 19.121094 25.179688 18.953125 24.402344 C 18.832031 23.84375 19.6875 23.058594 19.761719 22.988281 L 17.234375 19.59375 C 17.234375 19.59375 17.015625 19.160156 16.65625 19.300781 C 16.367188 19.375 16.367188 19.808594 16.367188 19.808594 L 16.339844 21.902344 C 16.339844 21.972656 16.339844 22.3125 16.148438 22.480469 C 15.914062 22.695312 15.4375 22.554688 15.226562 22.554688 C 14.5625 25.980469 11.542969 28.570312 7.925781 28.570312 C 3.816406 28.570312 0.484375 25.238281 0.484375 21.132812 C 0.484375 19.675781 0.902344 18.3125 1.628906 17.164062 "/>
<path style=" stroke:none;fill-rule:nonzero;fill:rgb(100%,100%,100%);fill-opacity:1;" d="M 20.398438 20.691406 L 18.449219 17.589844 C 18.230469 17.078125 18.230469 16.429688 18.59375 15.996094 C 18.878906 15.710938 19.390625 15.710938 19.824219 16.140625 C 20.398438 16.71875 20.613281 17.875 20.613281 18.378906 C 20.613281 18.957031 20.398438 19.898438 20.398438 20.691406 "/>
<path style=" stroke:none;fill-rule:nonzero;fill:rgb(100%,100%,100%);fill-opacity:1;" d="M 30.652344 21.628906 L 28.628906 21.410156 C 28.628906 21.410156 29.421875 19.964844 30.148438 19.242188 C 30.722656 18.667969 31.589844 18.085938 32.171875 17.726562 L 30.652344 21.628906 "/>
<path style=" stroke:none;fill-rule:nonzero;fill:rgb(100%,100%,100%);fill-opacity:1;" d="M 17.800781 13.597656 L 13.25 13.597656 C 13.25 13.597656 13.898438 12.152344 15.199219 12.222656 C 15.632812 12.222656 15.921875 12.152344 16.496094 12.519531 C 17.007812 12.878906 17.441406 13.238281 17.800781 13.597656 "/>
<path style=" stroke:none;fill-rule:nonzero;fill:rgb(100%,100%,100%);fill-opacity:1;" d="M 9.386719 20.308594 L 10.226562 19.046875 C 10.792969 19.621094 11.140625 20.394531 11.140625 21.261719 C 11.140625 23.019531 9.714844 24.445312 7.957031 24.445312 C 6.199219 24.445312 4.777344 23.019531 4.777344 21.261719 C 4.777344 19.550781 6.125 18.15625 7.820312 18.082031 L 7.894531 19.535156 C 6.96875 19.5625 6.230469 20.324219 6.230469 21.25 C 6.230469 22.199219 7 22.96875 7.949219 22.96875 C 8.894531 22.96875 9.667969 22.199219 9.667969 21.25 C 9.667969 20.90625 9.5625 20.582031 9.386719 20.308594 "/>
<path style=" stroke:none;fill-rule:nonzero;fill:rgb(100%,100%,100%);fill-opacity:1;" d="M 45.921875 21.925781 L 47.199219 22.558594 C 46.710938 23.6875 45.589844 24.472656 44.285156 24.472656 C 42.535156 24.472656 41.113281 23.050781 41.113281 21.300781 C 41.113281 20.726562 41.265625 20.183594 41.535156 19.71875 L 42.839844 20.359375 C 42.65625 20.636719 42.550781 20.964844 42.550781 21.320312 C 42.550781 22.28125 43.332031 23.0625 44.292969 23.0625 C 45.039062 23.0625 45.679688 22.589844 45.921875 21.925781 "/>
<path style=" stroke:none;fill-rule:nonzero;fill:rgb(100%,100%,100%);fill-opacity:1;" d="M 47.296875 20.304688 L 45.914062 20.695312 C 45.664062 20.042969 45.03125 19.582031 44.292969 19.582031 C 44.132812 19.582031 43.976562 19.601562 43.828125 19.644531 L 43.28125 18.292969 C 43.597656 18.1875 43.933594 18.128906 44.285156 18.128906 C 45.6875 18.128906 46.878906 19.042969 47.296875 20.304688 "/>
</g>
</svg>
